vendor/assets/images/icons/play.svg

<svg baseProfile="tiny" xmlns="http://www.w3.org/2000/svg" width="32" height="288" viewBox="0 0 32 288"><path fill="#fff" d="M16 2C8.3 2 2 8.3 2 16s6.3 14 14 14 14-6.3 14-14S23.7 2 16 2zm-3.1 19.6V10.4l8.4 5.6-8.4 5.6z"/><path fill="#333" d="M16 66C8.3 66 2 72.3 2 80s6.3 14 14 14 14-6.3 14-14-6.3-14-14-14zm-3.1 19.6V74.4l8.4 5.6-8.4 5.6z"/><path fill="#97999A" d="M16 130c-7.7 0-14 6.3-14 14s6.3 14 14 14 14-6.3 14-14-6.3-14-14-14zm-3.1 19.6v-11.2l8.4 5.6-8.4 5.6z"/><path fill="#008FE9" d="M16 194c-7.7 0-14 6.3-14 14s6.3 14 14 14 14-6.3 14-14-6.3-14-14-14zm-3.1 19.6v-11.2l8.4 5.6-8.4 5.6z"/><path fill="#1C1F4E" d="M16 258c-7.7 0-14 6.3-14 14s6.3 14 14 14 14-6.3 14-14-6.3-14-14-14zm-3.1 19.6v-11.2l8.4 5.6-8.4 5.6z"/></svg>

<?xml version="1.0" encoding="utf-8"?>
<!-- Generator: Adobe Illustrator 18.1.1, SVG Export Plug-In . SVG Version: 6.00 Build 0)  -->
<svg version="1.1" baseProfile="tiny" id="Layer_1" xmlns="http://www.w3.org/2000/svg" xmlns:xlink="http://www.w3.org/1999/xlink"
	 x="0px" y="0px" width="32px" height="288px" viewBox="0 0 32 288" xml:space="preserve">
<path fill="#FFFFFF" d="M16,2C8.3,2,2,8.3,2,16s6.3,14,14,14s14-6.3,14-14S23.7,2,16,2z M12.9,21.6V10.4l8.4,5.6L12.9,21.6z"/>
<path fill="#333333" d="M16,66C8.3,66,2,72.3,2,80s6.3,14,14,14s14-6.3,14-14S23.7,66,16,66z M12.9,85.6V74.4l8.4,5.6L12.9,85.6z"/>
<path fill="#97999A" d="M16,130c-7.7,0-14,6.3-14,14s6.3,14,14,14s14-6.3,14-14S23.7,130,16,130z M12.9,149.6v-11.2l8.4,5.6
	L12.9,149.6z"/>
<path fill="#008FE9" d="M16,194c-7.7,0-14,6.3-14,14s6.3,14,14,14s14-6.3,14-14S23.7,194,16,194z M12.9,213.6v-11.2l8.4,5.6
	L12.9,213.6z"/>
<path fill="#1C1F4E" d="M16,258c-7.7,0-14,6.3-14,14s6.3,14,14,14s14-6.3,14-14S23.7,258,16,258z M12.9,277.6v-11.2l8.4,5.6
	L12.9,277.6z"/>
</svg>
